Icons/com_nytimes_android.svg

<svg viewBox="0 0 48 48" xmlns:xlink="http://www.w3.org/1999/xlink">
 <defs>
  <linearGradient id="0">
   <stop stop-opacity="0"/>
   <stop offset="1"/>
  </linearGradient>
  <linearGradient xlink:href="#0" id="1" gradientUnits="userSpaceOnUse" gradientTransform="translate(4e-7,-48)" y1="47" x2="0" y2="1"/>
  <clipPath id="2">
   <g transform="translate(0,-1004.3622)">
    <rect rx="4" y="1005.36" x="1" height="46" width="46" fill="#1890d0"/>
   </g>
  </clipPath>
  <clipPath id="3">
   <g transform="translate(0,-1004.3622)">
    <rect rx="4" y="1005.36" x="1" height="46" width="46" fill="#1890d0"/>
   </g>
  </clipPath>
 </defs>
 <g>
  <g transform="translate(0,-1004.3622)">
   <path d="m 5,1006.3622 c -2.216,0 -4,1.784 -4,4 l 0,37.25 c 0,2.216 1.784,4 4,4 l 38,0 c 2.216,0 4,-1.784 4,-4 l 0,-37.25 c 0,-2.216 -1.784,-4 -4,-4 l -38,0 z m -4,41.5 0,0.5 c 0,2.216 1.784,4 4,4 l 38,0 c 2.216,0 4,-1.784 4,-4 l 0,-0.5 c 0,2.216 -1.784,4 -4,4 l -38,0 c -2.216,0 -4,-1.784 -4,-4 z" opacity="0.02"/>
   <path d="m 1,1047.6122 0,0.25 c 0,2.216 1.784,4 4,4 l 38,0 c 2.216,0 4,-1.784 4,-4 l 0,-0.25 c 0,2.216 -1.784,4 -4,4 l -38,0 c -2.216,0 -4,-1.784 -4,-4 z" opacity="0.05"/>
   <rect width="46" height="46" x="1" y="1005.61" rx="4" opacity="0.1"/>
  </g>
 </g>
 <g>
  <g transform="translate(0,-1004.3622)">
   <rect rx="4" y="1005.36" x="1" height="46" width="46" fill="#6c6c6c"/>
  </g>
 </g>
 <g>
  <rect transform="scale(1,-1)" width="46" height="46" x="1" y="-46.998" rx="4" opacity="0.1" fill="url(#1)"/>
 </g>
 <g>
  <g clip-path="url(#2)">
   <g opacity="0.1">
    <g>
     <path d="M 22.695312 37 C 17 36.332031 13.761719 32.210938 14.011719 27.183594 C 14.601562 23.148438 17.257812 20.226562 21 19 C 19.296875 21.648438 17.753906 24.953125 19.214844 28.347656 C 21.824219 32.71875 27.074219 33.109375 30.46875 31.386719 C 31.609375 30.804688 32.359375 30.234375 33.039062 29.433594 C 33.9375 28.375 34 27.464844 34 28 C 33.671875 33.992188 28 37 22.695312 37 Z M 22.695312 37 "/>
     <path d="M 22 21 L 26 19.5 L 26 28.484375 L 22 30 Z M 22 21 "/>
     <path d="M 27 25 L 29.5 22 L 32 25 L 29.5 28 Z M 27 25 "/>
     <path d="M 18.164062 12.085938 C 19.753906 11.640625 22.167969 11.984375 25.257812 13 C 28.382812 14.027344 29.175781 14.039062 30.035156 13.359375 C 30.617188 12.390625 30.375 12 30.375 11 C 31.242188 11.011719 33.054688 11.949219 33.554688 12.949219 C 34.738281 15.308594 33.484375 17.898438 30.757812 18.714844 C 29.351562 19.132812 28.054688 18.941406 24.105469 17.71875 C 21.746094 16.835938 19.117188 16 17.070312 17 C 16.042969 18 15.019531 19 15.019531 20 C 12.972656 17 13.996094 13 18.164062 12.085938 Z M 18.164062 12.085938 "/>
    </g>
   </g>
  </g>
 </g>
 <g>
  <g clip-path="url(#3)">
   <g transform="translate(0,-1)">
    <g>
     <path d="M 22.695312 37 C 17 36.332031 13.761719 32.210938 14.011719 27.183594 C 14.601562 23.148438 17.257812 20.226562 21 19 C 19.296875 21.648438 17.753906 24.953125 19.214844 28.347656 C 21.824219 32.71875 27.074219 33.109375 30.46875 31.386719 C 31.609375 30.804688 32.359375 30.234375 33.039062 29.433594 C 33.9375 28.375 34 27.464844 34 28 C 33.671875 33.992188 28 37 22.695312 37 Z M 22.695312 37 " fill="#ececec"/>
     <path d="M 22 21 L 26 19.5 L 26 28.484375 L 22 30 Z M 22 21 " fill="#ececec"/>
     <path d="M 27 25 L 29.5 22 L 32 25 L 29.5 28 Z M 27 25 " fill="#ececec"/>
     <path d="M 18.164062 12.085938 C 19.753906 11.640625 22.167969 11.984375 25.257812 13 C 28.382812 14.027344 29.175781 14.039062 30.035156 13.359375 C 30.617188 12.390625 30.375 12 30.375 11 C 31.242188 11.011719 33.054688 11.949219 33.554688 12.949219 C 34.738281 15.308594 33.484375 17.898438 30.757812 18.714844 C 29.351562 19.132812 28.054688 18.941406 24.105469 17.71875 C 21.746094 16.835938 19.117188 16 17.070312 17 C 16.042969 18 15.019531 19 15.019531 20 C 12.972656 17 13.996094 13 18.164062 12.085938 Z M 18.164062 12.085938 " fill="#ececec"/>
    </g>
   </g>
  </g>
 </g>
 <g>
  <g transform="translate(0,-1004.3622)">
   <path d="m 1,1043.3622 0,4 c 0,2.216 1.784,4 4,4 l 38,0 c 2.216,0 4,-1.784 4,-4 l 0,-4 c 0,2.216 -1.784,4 -4,4 l -38,0 c -2.216,0 -4,-1.784 -4,-4 z" opacity="0.1"/>
  </g>
 </g>
</svg>

<svg viewBox="0 0 48 48"><defs><linearGradient id="linearGradient3764" x1="1" x2="47" gradientUnits="userSpaceOnUse" gradientTransform="translate(-48.000001,0.00221467)"><stop stop-color="#626262" stop-opacity="1"/><stop offset="1" stop-color="#6c6c6c" stop-opacity="1"/></linearGradient><clipPath id="clipPath-100044534"><g transform="translate(0,-1004.3622)"><rect rx="4" y="1005.36" x="1" height="46" width="46" fill="#1890d0"/></g></clipPath><clipPath id="clipPath-112765432"><g transform="translate(0,-1004.3622)"><rect rx="4" y="1005.36" x="1" height="46" width="46" fill="#1890d0"/></g></clipPath></defs><g><path d="m 1 43 l 0 0.25 c 0 2.216 1.784 4 4 4 l 38 0 c 2.216 0 4 -1.784 4 -4 l 0 -0.25 c 0 2.216 -1.784 4 -4 4 l -38 0 c -2.216 0 -4 -1.784 -4 -4 z m 0 0.5 l 0 0.5 c 0 2.216 1.784 4 4 4 l 38 0 c 2.216 0 4 -1.784 4 -4 l 0 -0.5 c 0 2.216 -1.784 4 -4 4 l -38 0 c -2.216 0 -4 -1.784 -4 -4 z" opacity="0.02"/><path d="m 1 43.25 l 0 0.25 c 0 2.216 1.784 4 4 4 l 38 0 c 2.216 0 4 -1.784 4 -4 l 0 -0.25 c 0 2.216 -1.784 4 -4 4 l -38 0 c -2.216 0 -4 -1.784 -4 -4 z" opacity="0.05"/><path d="m 1 43 l 0 0.25 c 0 2.216 1.784 4 4 4 l 38 0 c 2.216 0 4 -1.784 4 -4 l 0 -0.25 c 0 2.216 -1.784 4 -4 4 l -38 0 c -2.216 0 -4 -1.784 -4 -4 z" opacity="0.1"/></g><g><rect width="46" height="46" x="-47" y="1" rx="4" transform="matrix(0,-1,1,0,0,0)" fill="url(#linearGradient3764)" fill-opacity="1"/></g><g><g clip-path="url(#clipPath-100044534)"><g opacity="0.1"><!-- color: #6c6c6c --><g><path d="m 22.695 37 c -5.695 -0.668 -8.934 -4.789 -8.684 -9.816 c 0.59 -4.04 3.246 -6.957 6.988 -8.184 c -1.703 2.648 -3.246 5.953 -1.785 9.348 c 2.609 4.371 7.859 4.762 11.254 3.039 c 1.141 -0.582 1.891 -1.152 2.57 -1.953 c 0.898 -1.059 0.961 -1.969 0.961 -1.434 c -0.328 5.992 -6 9 -11.305 9 m 0 0" fill="#000"/><path d="m 22 21 l 4 -1.5 l 0 8.984 l -4 1.516 m 0 -9" fill="#000"/><path d="m 27 25 l 2.5 -3 l 2.5 3 l -2.5 3 m -2.5 -3" fill="#000"/><path d="m 18.16 12.09 c 1.59 -0.445 4 -0.102 7.094 0.914 c 3.125 1.027 3.918 1.039 4.777 0.359 c 0.582 -0.969 0.34 -1.359 0.34 -2.359 c 0.867 0.012 2.68 0.949 3.18 1.949 c 1.184 2.359 -0.07 4.949 -2.797 5.766 c -1.406 0.418 -2.703 0.227 -6.652 -0.996 c -2.359 -0.883 -4.988 -1.719 -7.04 -0.719 c -1.027 1 -2.051 2 -2.051 3 c -2.047 -3 -1.023 -7 3.145 -7.914 m 0 0" fill="#000"/></g></g></g></g><g><g clip-path="url(#clipPath-112765432)"><g transform="translate(0,-1)"><!-- color: #6c6c6c --><g><path d="m 22.695 37 c -5.695 -0.668 -8.934 -4.789 -8.684 -9.816 c 0.59 -4.04 3.246 -6.957 6.988 -8.184 c -1.703 2.648 -3.246 5.953 -1.785 9.348 c 2.609 4.371 7.859 4.762 11.254 3.039 c 1.141 -0.582 1.891 -1.152 2.57 -1.953 c 0.898 -1.059 0.961 -1.969 0.961 -1.434 c -0.328 5.992 -6 9 -11.305 9 m 0 0" fill="#ececec"/><path d="m 22 21 l 4 -1.5 l 0 8.984 l -4 1.516 m 0 -9" fill="#ececec"/><path d="m 27 25 l 2.5 -3 l 2.5 3 l -2.5 3 m -2.5 -3" fill="#ececec"/><path d="m 18.16 12.09 c 1.59 -0.445 4 -0.102 7.094 0.914 c 3.125 1.027 3.918 1.039 4.777 0.359 c 0.582 -0.969 0.34 -1.359 0.34 -2.359 c 0.867 0.012 2.68 0.949 3.18 1.949 c 1.184 2.359 -0.07 4.949 -2.797 5.766 c -1.406 0.418 -2.703 0.227 -6.652 -0.996 c -2.359 -0.883 -4.988 -1.719 -7.04 -0.719 c -1.027 1 -2.051 2 -2.051 3 c -2.047 -3 -1.023 -7 3.145 -7.914 m 0 0" fill="#ececec"/></g></g></g></g><g><g transform="translate(0,-1004.3622)"><path d="m 1 1043.36 0 4 c 0 2.216 1.784 4 4 4 l 38 0 c 2.216 0 4 -1.784 4 -4 l 0 -4 c 0 2.216 -1.784 4 -4 4 l -38 0 c -2.216 0 -4 -1.784 -4 -4 z" opacity="0.1"/></g></g></svg>
